X:1
T:FLEE AS A BIRD
T:FLEE AS A BIRD
T:M. S. B. DANA
Z:Mary S. B. DANA
%%score 1 { 2 | 3 }
L:1/8
Q:1/4=71
M:4/4
K:F
V:1 treble nm="Ténor" snm="T."
V:2 treble nm="Piano" snm="Pia."
V:3 bass 
V:1
"^Moderato Espresivo" z8 | D2 A3/2 A/ A2 B3/2 A/ | (A3 G/F/) E4 | D2 F3/2 F/ G2 ^G3/2 G/ | %4
w: |Flee as a bird to your|moun- * * tain,-|Thou who art wea- ry of|
 (A4 E2) z2 | D2 A3/2 A/ A2 B3/2 A/ | (A3 G/F/) E2 z2 | D2 F3/2 F/ E2 A3/2 A/ | D6 z2 | %9
w: sin;- _|Go to the clear flow- ing|foun- * * tain,|Where you may wash and be|clean;|
 F2 A3/2 G/ F2 d3/2 c/ | (c3 B/A/) G2 z2 | A2 G3/2 A/ cB A G | F4 E2 z2 | D2 A3/2 A/ A2 B3/2 A/ | %14
w: Fly, for th' a- ven- ger is|near * * thee;|Call and the Sav- * iour will|hear thee,|He on his bo- som will|
 (A3 G/F/) E2 z2 | D2 F3/2 F/ E2 A3/2 A/ | D4 B4 | %17
w: bear * * thee,|Thou who art wea- ry of|sin, O|
 A2"^un poco ritenuto."[Q:1/4=70] F3/2[Q:1/4=69] D/[Q:1/4=67] A,2[Q:1/4=66] F3/2 E/ | %18
w: thou, who art wea- ry of|
[Q:1/8=65] D6 z2[Q:1/4=64][Q:1/4=63][Q:1/4=62][Q:1/4=61][Q:1/4=60] | z8 | z8 | z8 ||[Q:1/4=71] z8 | %23
w: sin.|||||
 D2 A3/2 A/ A2 B3/2 A/ | (A3 G/F/) E4 | D2 F3/2 F/ G2 ^G2 | (A4 E2) z2 | D2 A3/2 A/ A2 B3/2 A/ | %28
w: He will prot- ect thee for|ev- * * er,|Wipe ev- 'ry fall- ing|tear:- _|He will for- sake thee, O|
 (A3 G/F/) E2 z2 | D2 F3/2 F/ E2 A3/2 A/ | D6 z2 | F2 A3/2 G/ F2 (d>c) | (c3 B/A/) G2 z2 | %33
w: nev- * * er,|Shelt- ered so ten- der- ly|there;|Haste, then, the hours are *|fly- * * ing,|
 A2 G3/2 A/ cB A G | F4 E2 z2 | D2 A3/2 A/ A2 B3/2 A/ | (A3 G/F/) E2 z E | D2 F3/2 F/ E2 A3/2 A/ | %38
w: Spend not the mo- * ments in|sigh- ing,|Cease from your sor- row and|cry- * * ing, The|Sa- viour will wipe ev- 'ry|
 D4 B4 | A2"^un poco ritenuto"[Q:1/4=70] F3/2[Q:1/4=69] D/[Q:1/4=67] A,2[Q:1/4=66] F3/2 E/ | %40
w: tear, The|Sa- viour will wipe ev- 'ry|
[Q:1/4=65] D6 z2[Q:1/4=64][Q:1/4=63][Q:1/4=62][Q:1/4=61][Q:1/4=60] | z8 | z8 | z8 |] %44
w: tear.||||
V:2
 z A,[DF]A, [DF]A,[DF]A, | z A,[DF]A, [DF]A,[DF]A, | z A,[^CEG]A, [CEG]A,[CEG]A, | %3
 z A,[DF]A, z [DFG] z [DF^G] | z A,[DFA]A, z A,[^CEG]A, | z A,[DF]A, [DF]A,[DF]A, | %6
 z A,[^CEG]A, [CEG]A,[CEG]A, | z A,[DF]A, z A,[^CEG]A, | z A,[DF]A, z4 | z C[FA]C [FA]C[FA]C | %10
 z C[EGB]C [EGB]C[EGB]C | z C[FA]C z B,[DEG]B, | z A,[DF]A, [^CE]A,[CE]A, | %13
 z A,[DF]A, [DF]A,[DF]A, | z A,[^CEG]A, [CEG]A,[CEG]A, | z A,[DF]A, z A,[^CEG]A, | [A,DF]4 [DGB]4 | %17
 [DFA]4 [A,^CEG]4 | z FAd [Af][Fd][Ge][E^c] | [Fd]A,DF [FA][DF][EG][^CE] | %20
 D4 [A,F][F,D][G,E][E,^C] | !stemless![F,D]8 || z A,[DF]A, [DF]A,[DF]A, | z A,[DF]A, [DF]A,[DF]A, | %24
 z A,[^CEG]A, [CEG]A,[CEG]A, | z A,[DF]A, z [DFG] z [DF^G] | z A,[DFA]A, z A,[^CEG]A, | %27
 z A,[DF]A, [DF]A,[DF]A, | z A,[^CEG]A, [CEG]A,[CEG]A, | z A,[DF]A, z A,[^CEG]A, | z A,[DF]A, z4 | %31
 z C[FA]C [FA]C[FA]C | z C[EGB]C [EGB]C[EGB]C | z C[FA]C z B,[DEG]B, | z A,[DF]A, [^CE]A,[CE]A, | %35
 z A,[DF]A, [DF]A,[DF]A, | z A,[^CEG]A, [CEG]A,[CEG]A, | z A,[DF]A, z A,[^CEG]A, | [A,DF]4 [DGB]4 | %39
 [DFA]4 [A,^CEG]4 | z FAd [Af][Fd][Ge][E^c] | [Fd]A,DF [FA][DF][EG][^CE] | %42
 D4 [A,F][F,D][G,E][E,^C] | !stemless![F,D]8 |] %44
V:3
 !stemless![D,,D,]8 | !stemless![D,,D,]8 | !stemless![A,,,A,,]8 | [D,,D,]4 [B,,,B,,]2 [B,,,B,,]2 | %4
 [A,,,A,,]4 [A,,,A,,]4 | !stemless![D,,D,]8 | !stemless![A,,,A,,]8 | [D,,D,]4 [A,,,A,,]4 | %8
 [D,,D,]4 [D,,D,]4 | !stemless![F,,F,]8 | !stemless![C,,C,]8 | [F,,,F,,]4 [G,,,G,,]4 | %12
 !stemless![A,,,A,,]8 | !stemless![D,,D,]8 | !stemless![A,,,A,,]8 | [D,,D,]4 [A,,,A,,]4 | %16
 [D,,D,]4 [G,,,G,,]4 | [A,,,A,,]4 [A,,,A,,]4 | [D,,D,]6 [A,,,A,,]2 | [D,,D,]6 [A,,,A,,]2 | %20
 [D,,D,]4 [A,,,A,,]4 | !stemless![D,,D,]8 || !stemless![D,,D,]8 | !stemless![D,,D,]8 | %24
 !stemless![A,,,A,,]8 | [D,,D,]4 [B,,,B,,]2 [B,,,B,,]2 | [A,,,A,,]4 [A,,,A,,]4 | %27
 !stemless![D,,D,]8 | !stemless![A,,,A,,]8 | [D,,D,]4 [A,,,A,,]4 | [D,,D,]4 [D,,D,]4 | %31
 !stemless![F,,F,]8 | !stemless![C,,C,]8 | [F,,,F,,]4 [G,,,G,,]4 | !stemless![A,,,A,,]8 | %35
 !stemless![D,,D,]8 | !stemless![A,,,A,,]8 | [D,,D,]4 [A,,,A,,]4 | [D,,D,]4 [G,,,G,,]4 | %39
 [A,,,A,,]4 [A,,,A,,]4 | [D,,D,]6 [A,,,A,,]2 | [D,,D,]6 [A,,,A,,]2 | [D,,D,]4 [A,,,A,,]4 | %43
 !stemless![D,,D,]8 |] %44

